X: 32402
T: Piper's Chair, The
R: jig
M: 6/8
K: Gmajor
|:DGG GFD|Dcc cBc|ded c/B/AG|FAG FED|
DGG GFD|Dcc cBc|ded cAF|1 AGF G2F:|2 AGF GBd||
|:g3 agf|d2g gfg|GFG =f3|A2B cBA|
GBd g3|d2e fdc|B/c/dB cAF|1 AGF GBd:|2 AGF G2F||

